X:1
T:Bill Bailey
M:2/4
L:1/8
K:F
 AA AA| A2- A z| AAA/2-A/2 A| A2- AA| Acd/2-c/2 A| Acd/2-c/2 A| A/2A/2 AA A|\
 Ac cc| c- E3-| Ec cc| c- F3-| F2 z A| A/2A/2 A A/2A/2 A| A A2 A| AA AA|\
 A2 z2| A/2A/2 cd/2-c/2A/2-A/2| Acd/2-c/2 A/2A/2| AA AA| Ac cc| c- E3-|\
 Ec/2-c/2 cc| c- F3-| F2 z2| C D2 F| A3/2 ^G/2 Ac| C D2 F| A4| C D2 F|\
 A2 c2| c- E3-| E2 z2| C E2 G| BA Bc| C E2 G| B2 z2| C E2 G| c2 d2|\
 d- A3-| A2 z2| C D2 F| A3/2 ^G/2 Ac| C D2 F| A2 z C| CC FA| c2 _e2|\
 d4-| d2 z F| F F2 F| G2 F2| c c2 d| A2 z A| AG ^FG| B2 A2| F4-| F2 z2|\
